X:1
T:A Major Oliver Holden, 1800
T:Anna Barbauld, 1772      77. 77.
T:Havanna No copyright. Treble-Tenor-Bass from Plain Psalmody , 1800; Counted by B. C. Johnston, 2015.
%%score [ 1 2 3 4 ]
L:1/8
M:4/4
K:A
V:1 treble nm="Treble" snm="Tr."
V:2 treble nm="Counter" snm="C."
V:3 treble-8 nm="Tenor" snm="T."
V:4 bass nm="Bass" snm="B."
V:1
 A4 B4 | A6 AB | c4 d4 | c8 | (B2 c2) (d2 B2) | e4 G4 | A4 F4 | E8 | (B2 c2) (d2 c2) | B6 B2 | %10
 (B2 c2) (d2 c2) | c8 | (A2 G2) (A2 B2) | (c2 d2 e2) d2 | c4 B4 | A8 |] %16
V:2
 c4 B4 | B6 AG | A4 F4 | E8 | (B2 A2) (G2 B2) | (c2 B2) (G2 F2) | E4 F4 | G8 | (B2 A2) (G2 A2) | %9
w: 1.~Praise to|God, im- *|mor- tal|praise,|For * the *|love * that *|crowns our|days;|Boun- * teous *|
 B6 B2 | (B2 A2) (G2 E2) | E8 | (A2 B2) (c2 B2) | (A2 B2) (A2 B2) | A4 G4 | E8 |] %16
w: source of|eve- * ry *|joy,|Let * Thy *|praise * our *|tongues em-|ploy.|
V:3
 c4 d4 | c6 cd | e4 f4 | e8 | (G2 A2) (B2 G2) | (G2 B2) (e2 d2) | c4 A4 | G8 | (G2 A2) (B2 A2) | %9
 G6 G2 | (G2 A2) (B2 A2) | A8 | (c2 B2) (c2 d2) | (c2 B2 A2) B2 | A4 B4 | c8 |] %16
V:4
 A,4 E,4 | C,6 A,,2 | [A,,A,]4 [A,,A,]4 | [A,,A,]8 | E,4 E,4 | E,4 E,4 | A,,4 B,,4 | E,8 | %8
 E,4 E,4 | E,6 E,2 | E,4 E,4 | A,8 | (A,2 E,2) (A,2 G,2) | (A,2 B,2 C2) D,2 | E,4 E,4 | A,,8 |] %16

